X: 6304
T: Carraroe, The
R: jig
M: 6/8
K: Dmajor
|:DED F2A|dfe d2A|BdB AFA|dAF E2F|
DED F2A|dfe d2A|BdB Adf|afd e2f:|
|:dfa afa|bge edc|dfa afa|bge efe|
dfa afa|bge edB|d2B AFA|1 dAF E2D:|2 dAF E2F||

